Numix-Square/48x48/apps/notifyosdconf.svg

<svg xmlns="http://www.w3.org/2000/svg" xmlns:xlink="http://www.w3.org/1999/xlink" width="48" viewBox="0 0 13.546667 13.546667" height="48">
 <defs>
  <linearGradient id="0">
   <stop stop-color="#198ba6"/>
   <stop offset="1" stop-color="#42c9e7"/>
  </linearGradient>
  <clipPath>
   <path d="m 489.217,197.275 c -2.603,0 -3.953,-1.367 -3.953,-3.971 l 0,0 0,-1.034 c 0,-2.604 1.35,-3.971 3.953,-3.971 l 0,0 1.035,0 c 2.62,0 3.97,1.367 3.97,3.971 l 0,0 0,1.034 c 0,2.604 -1.35,3.971 -3.97,3.971 l 0,0 -1.035,0 z"/>
  </clipPath>
  <linearGradient id="1">
   <stop stop-color="#620000"/>
   <stop offset="1" stop-color="#dd0f0f"/>
  </linearGradient>
  <clipPath>
   <rect y="223" x="307" height="42" width="42" transform="matrix(0,1,-1,0,0,0)" fill="url(#2)" color="#bebebe" rx="9"/>
  </clipPath>
  <linearGradient xlink:href="#1" id="2" gradientUnits="userSpaceOnUse" gradientTransform="matrix(0.175,0,0,0.175,302.79999,215.99997)" y1="280" x2="0" y2="40"/>
  <clipPath>
   <rect y="85" x="433" height="22" width="22" fill="url(#3)" color="#bebebe" rx="4"/>
  </clipPath>
  <linearGradient xlink:href="#1" id="3" gradientUnits="userSpaceOnUse" gradientTransform="matrix(0.0875,0,0,0.0875,430.9,81.499996)" y1="291.43" x2="0" y2="40"/>
  <clipPath>
   <rect width="30" height="30" x="433" y="37" fill="url(#4)" color="#bebebe" rx="6"/>
  </clipPath>
  <linearGradient xlink:href="#1" id="4" gradientUnits="userSpaceOnUse" gradientTransform="matrix(0.11931818,0,0,0.11931818,430.13636,32.227267)" y1="291.43" x2="0" y2="40"/>
  <clipPath>
   <rect width="16" height="16" x="304" y="212" transform="matrix(0,1,-1,0,0,0)" fill="url(#5)" color="#bebebe" rx="3"/>
  </clipPath>
  <linearGradient xlink:href="#1" id="5" gradientUnits="userSpaceOnUse" gradientTransform="matrix(0.06666667,0,0,0.06666667,302.4,209.33333)" y1="280" x2="0" y2="40"/>
  <clipPath>
   <rect y="46" x="34" height="220" width="220" fill="url(#6)" color="#bebebe" rx="50"/>
  </clipPath>
  <linearGradient xlink:href="#1" id="6" gradientUnits="userSpaceOnUse" gradientTransform="translate(0,-4)" y1="280" x2="0" y2="40"/>
  <clipPath>
   <rect y="142" x="290" height="60" width="60" fill="url(#7)" color="#bebebe" rx="12.5"/>
  </clipPath>
  <linearGradient xlink:href="#1" id="7" gradientUnits="userSpaceOnUse" y1="204" x2="0" y2="140"/>
  <clipPath>
   <rect width="88" height="88" x="292" y="32" fill="url(#8)" color="#bebebe" rx="18"/>
  </clipPath>
  <linearGradient xlink:href="#1" id="8" gradientUnits="userSpaceOnUse" y1="124" x2="0" y2="28"/>
  <clipPath>
   <rect y="101" x="417" height="22" width="22" fill="url(#9)" color="#bebebe" rx="5"/>
  </clipPath>
  <linearGradient xlink:href="#1" id="9" gradientUnits="userSpaceOnUse" gradientTransform="matrix(0.0875,0,0,0.0875,414.9,97.5)" y1="302.86" x2="0" y2="28.571"/>
  <clipPath>
   <rect width="30" height="30" x="417" y="53" fill="url(#A)" color="#bebebe" rx="7"/>
  </clipPath>
  <linearGradient xlink:href="#1" id="A" gradientUnits="userSpaceOnUse" gradientTransform="matrix(0.11931818,0,0,0.11931818,414.13636,48.22727)" y1="299.81" x2="0" y2="31.619"/>
  <use id="B" opacity="0.2" fill="#ffffff" xlink:href="#d"/>
  <clipPath>
   <use xlink:href="#B" transform="matrix(8,0,0,8,-2141.5757,-54.424243)"/>
  </clipPath>
  <clipPath>
   <use xlink:href="#B"/>
  </clipPath>
  <use id="C" fill="none" xlink:href="#d"/>
  <clipPath>
   <use xlink:href="#C"/>
  </clipPath>
  <clipPath>
   <use transform="matrix(8,0,0,8,-2141.5757,-54.424243)" xlink:href="#C"/>
  </clipPath>
  <use id="D" fill="none" xlink:href="#d"/>
  <clipPath>
   <use xlink:href="#D"/>
  </clipPath>
  <clipPath>
   <use transform="matrix(8,0,0,8,-2141.5757,-54.424243)" xlink:href="#D"/>
  </clipPath>
  <use id="E" fill="none" xlink:href="#d"/>
  <clipPath>
   <use xlink:href="#E"/>
  </clipPath>
  <clipPath>
   <use transform="matrix(8,0,0,8,-2141.5757,-54.424243)" xlink:href="#E"/>
  </clipPath>
  <use id="F" fill="none" xlink:href="#d"/>
  <clipPath>
   <use xlink:href="#F"/>
  </clipPath>
  <clipPath>
   <use transform="matrix(8,0,0,8,-2141.5757,-54.424243)" xlink:href="#F"/>
  </clipPath>
  <use id="G" fill="none" xlink:href="#d"/>
  <clipPath>
   <use xlink:href="#G"/>
  </clipPath>
  <clipPath>
   <use transform="matrix(8,0,0,8,-2141.5757,-54.424243)" xlink:href="#G"/>
  </clipPath>
  <use id="H" fill="none" xlink:href="#d"/>
  <clipPath>
   <use xlink:href="#H"/>
  </clipPath>
  <clipPath>
   <use transform="matrix(8,0,0,8,-2141.5757,-54.424243)" xlink:href="#H"/>
  </clipPath>
  <use id="I" fill="none" xlink:href="#d"/>
  <clipPath>
   <use xlink:href="#I"/>
  </clipPath>
  <clipPath>
   <rect y="223" x="307" height="42" width="42" transform="matrix(0,1,-1,0,0,0)" fill="url(#J)" color="#bebebe" rx="9"/>
  </clipPath>
  <linearGradient xlink:href="#1" id="J" gradientUnits="userSpaceOnUse" gradientTransform="matrix(0.175,0,0,0.175,302.79999,215.99997)" y1="280" x2="0" y2="40"/>
  <clipPath>
   <rect y="85" x="433" height="22" width="22" fill="url(#K)" color="#bebebe" rx="4"/>
  </clipPath>
  <linearGradient xlink:href="#1" id="K" gradientUnits="userSpaceOnUse" gradientTransform="matrix(0.0875,0,0,0.0875,430.9,81.499996)" y1="291.43" x2="0" y2="40"/>
  <clipPath>
   <rect width="30" height="30" x="433" y="37" fill="url(#L)" color="#bebebe" rx="6"/>
  </clipPath>
  <linearGradient xlink:href="#1" id="L" gradientUnits="userSpaceOnUse" gradientTransform="matrix(0.11931818,0,0,0.11931818,430.13636,32.227267)" y1="291.43" x2="0" y2="40"/>
  <clipPath>
   <rect width="16" height="16" x="304" y="212" transform="matrix(0,1,-1,0,0,0)" fill="url(#M)" color="#bebebe" rx="3"/>
  </clipPath>
  <linearGradient xlink:href="#1" id="M" gradientUnits="userSpaceOnUse" gradientTransform="matrix(0.06666667,0,0,0.06666667,302.4,209.33333)" y1="280" x2="0" y2="40"/>
  <clipPath>
   <rect y="46" x="34" height="220" width="220" fill="url(#N)" color="#bebebe" rx="50"/>
  </clipPath>
  <linearGradient xlink:href="#1" id="N" gradientUnits="userSpaceOnUse" gradientTransform="translate(0,-4)" y1="280" x2="0" y2="40"/>
  <clipPath>
   <rect y="142" x="290" height="60" width="60" fill="url(#O)" color="#bebebe" rx="12.5"/>
  </clipPath>
  <linearGradient xlink:href="#1" id="O" gradientUnits="userSpaceOnUse" y1="204" x2="0" y2="140"/>
  <clipPath>
   <rect width="88" height="88" x="292" y="32" fill="url(#P)" color="#bebebe" rx="18"/>
  </clipPath>
  <linearGradient xlink:href="#1" id="P" gradientUnits="userSpaceOnUse" y1="124" x2="0" y2="28"/>
  <clipPath>
   <rect y="101" x="417" height="22" width="22" fill="url(#Q)" color="#bebebe" rx="5"/>
  </clipPath>
  <linearGradient xlink:href="#1" id="Q" gradientUnits="userSpaceOnUse" gradientTransform="matrix(0.0875,0,0,0.0875,414.9,97.5)" y1="302.86" x2="0" y2="28.571"/>
  <clipPath>
   <rect width="30" height="30" x="417" y="53" fill="url(#R)" color="#bebebe" rx="7"/>
  </clipPath>
  <linearGradient xlink:href="#1" id="R" gradientUnits="userSpaceOnUse" gradientTransform="matrix(0.11931818,0,0,0.11931818,414.13636,48.22727)" y1="299.81" x2="0" y2="31.619"/>
  <clipPath>
   <use transform="matrix(8,0,0,8,-2141.5757,-54.424243)" xlink:href="#I"/>
  </clipPath>
  <use id="S" fill="none" xlink:href="#d"/>
  <clipPath>
   <use xlink:href="#S"/>
  </clipPath>
  <clipPath>
   <use transform="matrix(8,0,0,8,-2141.5757,-54.424243)" xlink:href="#S"/>
  </clipPath>
  <use id="T" fill="none" xlink:href="#d"/>
  <clipPath>
   <use xlink:href="#T"/>
  </clipPath>
  <clipPath>
   <use transform="matrix(8,0,0,8,-2141.5757,-54.424243)" xlink:href="#T"/>
  </clipPath>
  <use id="U" fill="none" xlink:href="#d"/>
  <clipPath>
   <use xlink:href="#U"/>
  </clipPath>
  <clipPath>
   <use transform="matrix(8,0,0,8,-2141.5757,-54.424243)" xlink:href="#U"/>
  </clipPath>
  <use id="V" fill="none" xlink:href="#d"/>
  <clipPath>
   <use xlink:href="#V"/>
  </clipPath>
  <clipPath>
   <use transform="matrix(8,0,0,8,-2141.5757,-54.424243)" xlink:href="#V"/>
  </clipPath>
  <use id="W" fill="none" xlink:href="#d"/>
  <clipPath>
   <use xlink:href="#W"/>
  </clipPath>
  <clipPath>
   <use transform="matrix(8,0,0,8,-2141.5757,-54.424243)" xlink:href="#W"/>
  </clipPath>
  <use id="X" fill="none" xlink:href="#d"/>
  <clipPath>
   <use xlink:href="#X"/>
  </clipPath>
  <clipPath>
   <use transform="matrix(8,0,0,8,-2141.5757,-54.424243)" xlink:href="#X"/>
  </clipPath>
  <clipPath>
   <path d="m 296,26 a 10,10 0 1 1 -20,0 10,10 0 1 1 20,0 z"/>
  </clipPath>
  <linearGradient gradientUnits="userSpaceOnUse" x2="0" y2="40" y1="280" xlink:href="#Z" id="Y" gradientTransform="matrix(.175 0 0 .175 302.79999 215.99997)"/>
  <linearGradient id="Z">
   <stop stop-color="#151515"/>
   <stop offset="1" stop-color="#222"/>
  </linearGradient>
  <linearGradient gradientUnits="userSpaceOnUse" x2="0" y2="90" y1="230" xlink:href="#Z" id="a" gradientTransform="matrix(.375 0 0 .375 298 16)"/>
  <linearGradient gradientUnits="userSpaceOnUse" x2="0" y2="90" y1="230" xlink:href="#Z" id="b" gradientTransform="matrix(.25 0 0 .25 299.99999 131.99999)"/>
  <linearGradient gradientUnits="userSpaceOnUse" x2="264" x1="265" y2="276" y1="40" xlink:href="#Z" gradientTransform="matrix(-1 0 0 -1 289 315)"/>
  <clipPath>
   <rect height="20" rx="4" y="78" x="434" width="20" color="#bebebe"/>
  </clipPath>
  <clipPath>
   <rect height="22" rx="4" y="77" x="433" width="22" color="#bebebe"/>
  </clipPath>
  <clipPath>
   <rect height="22" rx="5" y="77" x="433" width="22" color="#bebebe"/>
  </clipPath>
  <clipPath>
   <rect height="30" rx="6" y="29" x="433" width="30" color="#bebebe"/>
  </clipPath>
  <clipPath>
   <rect transform="matrix(0 -1 1 0 0 0)" height="60" rx="12.5" y="142" x="306" width="60" fill="url(#b)" color="#bebebe"/>
  </clipPath>
  <clipPath>
   <rect height="90" rx="18.75" y="31" x="307" width="90" fill="url(#a)" color="#bebebe"/>
  </clipPath>
  <clipPath>
   <rect height="30" rx="4" y="29" x="433" width="30" opacity="0.2" fill="#6d6d6d" color="#bebebe"/>
  </clipPath>
  <clipPath>
   <rect height="22" rx="3" y="77" x="433" width="22" opacity="0.2" fill="#6d6d6d" color="#bebebe"/>
  </clipPath>
  <clipPath>
   <path d="m 144,70 c -49.705627,0 -90,40.29437 -90,90 0,49.70563 40.294373,90 90,90 49.70563,0 90,-40.29437 90,-90 0,-49.70563 -40.29437,-90 -90,-90 z m 0,32.1875 c 32.03251,0 58,25.96748 58,58 0,32.03252 -25.96749,58 -58,58 -32.03251,0 -58,-25.96748 -58,-58 0,-32.03252 25.96749,-58 58,-58 z"/>
  </clipPath>
  <clipPath>
   <path d="m 152,204 a 8,8 0 1 1 -16,0 8,8 0 1 1 16,0 z"/>
  </clipPath>
  <clipPath>
   <rect height="16" rx="3" y="116" x="432" width="16" color="#bebebe"/>
  </clipPath>
  <clipPath>
   <path d="m 145,215 c 33.13708,0 60,-26.86292 60,-60 0,-33.13708 -26.86292,-60 -60,-60 -33.13708,0 -60,26.86292 -60,60 0,12.50698 3.8285,24.10633 10.375,33.71875 L 89,211 111.28125,204.625 C 120.89367,211.1715 132.49302,215 145,215 z"/>
  </clipPath>
  <clipPath>
   <path d="m 98.03125,23.191212 c -41.492132,1.05238 -74.84375,35.06824 -74.84375,76.812498 0,42.40687 34.405632,76.8125 76.8125,76.8125 42.40687,0 76.8125,-34.40563 76.8125,-76.8125 0,-42.406866 -34.40563,-76.812498 -76.8125,-76.812498 -0.662607,0 -1.310145,-0.0167 -1.96875,0 z M 100,50.659962 c 27.24464,0 49.34375,22.099114 49.34375,49.343748 -1e-5,27.24464 -22.09911,49.34375 -49.34375,49.34375 -27.244636,-1e-5 -49.34375,-22.09911 -49.34375,-49.34375 0,-27.244634 22.099114,-49.343748 49.34375,-49.343748 z"/>
  </clipPath>
  <clipPath>
   <rect height="16" rx="2" y="116" x="432" width="16" opacity="0.2" fill="#6d6d6d" color="#bebebe"/>
  </clipPath>
  <clipPath>
   <rect height="240" rx="50" y="36" x="24" width="240" fill="#986767" color="#bebebe"/>
  </clipPath>
  <clipPath>
   <rect transform="rotate(90)" height="42" rx="9" y="223" x="307" width="42" fill="url(#Y)" color="#bebebe"/>
  </clipPath>
  <linearGradient gradientTransform="matrix(0.28222223,0,0,0.28222223,0,-283.45334)" xlink:href="#0" id="c" y1="1050.36" x2="0" y2="1006.36" gradientUnits="userSpaceOnUse"/>
  <path id="d" d="m 296,26 a 10,10 0 1 1 -20,0 10,10 0 1 1 20,0 z" color="#000000"/>
 </defs>
 <g transform="matrix(0.28222223,0,0,0.28222223,0,-283.45334)">
  <path transform="translate(0,1004.3622)" d="M 5.1875,1 C 2.8707723,1 1,2.8707723 1,5.1875 l 0,37.625 C 1,45.129228 2.8707723,47 5.1875,47 l 37.625,0 C 45.129228,47 47,45.129228 47,42.8125 L 47,5.1875 C 47,2.8707723 45.129228,1 42.8125,1 L 5.1875,1 z m 0.1875,0.25 37.25,0 c 2.291546,0 4.125,1.8334541 4.125,4.125 l 0,37.25 c 0,2.291546 -1.833454,4.125 -4.125,4.125 l -37.25,0 C 3.0834541,46.75 1.25,44.916546 1.25,42.625 l 0,-37.25 C 1.25,3.0834541 3.0834541,1.25 5.375,1.25 z" opacity="0.05"/>
  <path transform="translate(0,1004.3622)" d="M 5.375,1.25 C 3.0834541,1.25 1.25,3.0834541 1.25,5.375 l 0,37.25 c 0,2.291546 1.8334541,4.125 4.125,4.125 l 37.25,0 c 2.291546,0 4.125,-1.833454 4.125,-4.125 l 0,-37.25 C 46.75,3.0834541 44.916546,1.25 42.625,1.25 l -37.25,0 z m 0.21875,0.25 36.8125,0 C 44.672614,1.5 46.5,3.3273859 46.5,5.59375 l 0,36.8125 C 46.5,44.672614 44.672614,46.5 42.40625,46.5 l -36.8125,0 C 3.3273859,46.5 1.5,44.672614 1.5,42.40625 l 0,-36.8125 C 1.5,3.3273859 3.3273859,1.5 5.59375,1.5 z" opacity="0.1"/>
  <path transform="translate(0,1004.3622)" d="M 5.59375,1.5 C 3.3273859,1.5 1.5,3.3273859 1.5,5.59375 l 0,36.8125 C 1.5,44.672614 3.3273859,46.5 5.59375,46.5 l 36.8125,0 C 44.672614,46.5 46.5,44.672614 46.5,42.40625 l 0,-36.8125 C 46.5,3.3273859 44.672614,1.5 42.40625,1.5 l -36.8125,0 z m 0.09375,0.125 36.625,0 c 2.253773,0 4.0625,1.8087269 4.0625,4.0625 l 0,36.625 c 0,2.253773 -1.808727,4.0625 -4.0625,4.0625 l -36.625,0 c -2.2537731,0 -4.0625,-1.808727 -4.0625,-4.0625 l 0,-36.625 C 1.625,3.4337269 3.4337269,1.625 5.6875,1.625 z" opacity="0.2"/>
  <path transform="translate(0,1004.3622)" d="M 5.6875,1.625 C 3.4337269,1.625 1.625,3.4337269 1.625,5.6875 l 0,36.625 c 0,2.253773 1.8087269,4.0625 4.0625,4.0625 l 36.625,0 c 2.253773,0 4.0625,-1.808727 4.0625,-4.0625 l 0,-36.625 c 0,-2.2537731 -1.808727,-4.0625 -4.0625,-4.0625 l -36.625,0 z m 0.09375,0.125 36.4375,0 c 2.241182,0 4.03125,1.7900679 4.03125,4.03125 l 0,36.4375 c 0,2.241182 -1.790068,4.03125 -4.03125,4.03125 l -36.4375,0 C 3.5400679,46.25 1.75,44.459932 1.75,42.21875 l 0,-36.4375 C 1.75,3.5400679 3.5400679,1.75 5.78125,1.75 z" opacity="0.3"/>
  <path transform="translate(0,1004.3622)" d="M 5.78125,1.75 C 3.5400679,1.75 1.75,3.5400679 1.75,5.78125 l 0,36.4375 c 0,2.241182 1.7900679,4.03125 4.03125,4.03125 l 36.4375,0 c 2.241182,0 4.03125,-1.790068 4.03125,-4.03125 l 0,-36.4375 C 46.25,3.5400679 44.459932,1.75 42.21875,1.75 l -36.4375,0 z m 0.125,0.125 36.1875,0 c 2.228591,0 4.03125,1.802659 4.03125,4.03125 l 0,36.1875 c 0,2.228591 -1.802659,4.03125 -4.03125,4.03125 l -36.1875,0 C 3.677659,46.125 1.875,44.322341 1.875,42.09375 l 0,-36.1875 C 1.875,3.677659 3.677659,1.875 5.90625,1.875 z" opacity="0.4"/>
  <rect width="44.25" height="44.25" x="1.875" y="1006.24" rx="4.02" opacity="0.5"/>
 </g>
 <rect width="12.418" height="12.418" x="0.564" y="0.564" rx="1.129" fill="url(#c)"/>
 <path d="M 13.4375 13 C 12.628906 13 12 13.6289 12 14.4375 L 12 30.3125 C 12 31.1211 12.628906 31.75 13.4375 31.75 L 18 31.75 L 18 37 L 24 31.75 L 34.5625 31.75 C 35.371094 31.75 36 31.1211 36 30.3125 L 36 14.4375 C 36 13.6289 35.339844 13 34.53125 13 L 13.4375 13 z M 23.25 14 L 24.75 14 L 24.75 25.09375 C 25.758354 25.287 26.5 25.830886 26.5 26.5 C 26.5 27.169115 25.758354 27.713 24.75 27.90625 L 24.75 30 L 23.25 30 L 23.25 27.90625 C 22.241646 27.713 21.5 27.169115 21.5 26.5 C 21.5 25.830886 22.241646 25.287 23.25 25.09375 L 23.25 14 z M 17.75 15 L 19.25 15 L 19.25 18.09375 C 20.258354 18.287 21 18.830886 21 19.5 C 21 20.169115 20.258354 20.713 19.25 20.90625 L 19.25 29 L 17.75 29 L 17.75 20.90625 C 16.741646 20.713 16 20.169115 16 19.5 C 16 18.830886 16.741646 18.287 17.75 18.09375 L 17.75 15 z M 28.75 15 L 30.25 15 L 30.25 18.09375 C 31.258354 18.287 32 18.830886 32 19.5 C 32 20.169115 31.258354 20.713 30.25 20.90625 L 30.25 29 L 28.75 29 L 28.75 20.90625 C 27.741646 20.713 27 20.169115 27 19.5 C 27 18.830886 27.741646 18.287 28.75 18.09375 L 28.75 15 z " transform="scale(0.28222223,0.28222223)" fill="#f9f9f9"/>
</svg>

<svg viewBox="0 0 48 48"><defs><linearGradient id="linearGradient3764" x1="1" x2="47" gradientUnits="userSpaceOnUse" gradientTransform="translate(-47.997785,0.00221467)"><stop stop-color="#2bb0cd" stop-opacity="1"/><stop offset="1" stop-color="#37b8d5" stop-opacity="1"/></linearGradient><clipPath id="clipPath-515403575"><g transform="translate(0,-1004.3622)"><rect rx="4" y="1005.36" x="1" height="46" width="46" fill="#1890d0"/></g></clipPath><clipPath id="clipPath-534236141"><g transform="translate(0,-1004.3622)"><rect rx="4" y="1005.36" x="1" height="46" width="46" fill="#1890d0"/></g></clipPath></defs><g><g transform="translate(0,-1004.3622)"><path d="m 5 1006.36 c -2.216 0 -4 1.784 -4 4 l 0 37.25 c 0 2.216 1.784 4 4 4 l 38 0 c 2.216 0 4 -1.784 4 -4 l 0 -37.25 c 0 -2.216 -1.784 -4 -4 -4 l -38 0 z m -4 41.5 0 0.5 c 0 2.216 1.784 4 4 4 l 38 0 c 2.216 0 4 -1.784 4 -4 l 0 -0.5 c 0 2.216 -1.784 4 -4 4 l -38 0 c -2.216 0 -4 -1.784 -4 -4 z" opacity="0.02"/><path d="m 1 1047.61 0 0.25 c 0 2.216 1.784 4 4 4 l 38 0 c 2.216 0 4 -1.784 4 -4 l 0 -0.25 c 0 2.216 -1.784 4 -4 4 l -38 0 c -2.216 0 -4 -1.784 -4 -4 z" opacity="0.05"/><rect width="46" height="46" x="1" y="1005.61" rx="4" opacity="0.1"/></g></g><g><rect width="46" height="46" x="-46.998" y="1" rx="4" transform="matrix(0,-1,1,0,0,0)" fill="url(#linearGradient3764)" fill-opacity="1"/></g><g/><g><g clip-path="url(#clipPath-515403575)"><g opacity="0.1"><!-- color: #37b8d5 --><g><path d="m 13.438 13 c -0.809 0 -1.438 0.629 -1.438 1.438 l 0 15.875 c 0 0.809 0.629 1.438 1.438 1.438 l 4.563 0 l 0 5.25 l 6 -5.25 l 10.563 0 c 0.809 0 1.441 -0.629 1.441 -1.438 l 0 -15.875 c 0 -0.809 -0.66 -1.438 -1.473 -1.438 m -11.281 1 l 1.5 0 l 0 11.09 c 1.012 0.191 1.75 0.738 1.75 1.406 c 0 0.668 -0.742 1.215 -1.75 1.406 l 0 2.094 l -1.5 0 l 0 -2.094 c -1.01 -0.191 -1.75 -0.738 -1.75 -1.406 c 0 -0.668 0.742 -1.215 1.75 -1.406 m -5.5 -10.09 l 1.5 0 l 0 3.094 c 1.012 0.191 1.75 0.738 1.75 1.406 c 0 0.668 -0.742 1.215 -1.75 1.406 l 0 8.094 l -1.5 0 l 0 -8.094 c -1.01 -0.191 -1.75 -0.738 -1.75 -1.406 c 0 -0.668 0.742 -1.215 1.75 -1.406 m 11 -3.094 l 1.5 0 l 0 3.094 c 1.012 0.191 1.75 0.738 1.75 1.406 c 0 0.668 -0.742 1.215 -1.75 1.406 l 0 8.094 l -1.5 0 l 0 -8.094 c -1.01 -0.191 -1.75 -0.738 -1.75 -1.406 c 0 -0.668 0.742 -1.215 1.75 -1.406 m 0 -3.094" stroke="none" fill-rule="nonzero" fill-opacity="1" fill="#000"/></g></g></g></g><g><g clip-path="url(#clipPath-534236141)"><g transform="translate(0,-1)"><!-- color: #37b8d5 --><g><path d="m 13.438 13 c -0.809 0 -1.438 0.629 -1.438 1.438 l 0 15.875 c 0 0.809 0.629 1.438 1.438 1.438 l 4.563 0 l 0 5.25 l 6 -5.25 l 10.563 0 c 0.809 0 1.441 -0.629 1.441 -1.438 l 0 -15.875 c 0 -0.809 -0.66 -1.438 -1.473 -1.438 m -11.281 1 l 1.5 0 l 0 11.09 c 1.012 0.191 1.75 0.738 1.75 1.406 c 0 0.668 -0.742 1.215 -1.75 1.406 l 0 2.094 l -1.5 0 l 0 -2.094 c -1.01 -0.191 -1.75 -0.738 -1.75 -1.406 c 0 -0.668 0.742 -1.215 1.75 -1.406 m -5.5 -10.09 l 1.5 0 l 0 3.094 c 1.012 0.191 1.75 0.738 1.75 1.406 c 0 0.668 -0.742 1.215 -1.75 1.406 l 0 8.094 l -1.5 0 l 0 -8.094 c -1.01 -0.191 -1.75 -0.738 -1.75 -1.406 c 0 -0.668 0.742 -1.215 1.75 -1.406 m 11 -3.094 l 1.5 0 l 0 3.094 c 1.012 0.191 1.75 0.738 1.75 1.406 c 0 0.668 -0.742 1.215 -1.75 1.406 l 0 8.094 l -1.5 0 l 0 -8.094 c -1.01 -0.191 -1.75 -0.738 -1.75 -1.406 c 0 -0.668 0.742 -1.215 1.75 -1.406 m 0 -3.094" fill="#f9f9f9" stroke="none" fill-rule="nonzero" fill-opacity="1"/></g></g></g></g><g><g transform="translate(0,-1004.3622)"><path d="m 1 1043.36 0 4 c 0 2.216 1.784 4 4 4 l 38 0 c 2.216 0 4 -1.784 4 -4 l 0 -4 c 0 2.216 -1.784 4 -4 4 l -38 0 c -2.216 0 -4 -1.784 -4 -4 z" opacity="0.1"/></g></g></svg>
